X:1
T:Nocturn, LM
T:Nocturn, LM
T:Frederick Hampton Burstall (1851-1916)
T:Public Domain Courtesy of the Cyber Hymnal™
C:Frederick Hampton Burstall (1851-1916)
Z:Public Domain
Z:Courtesy of the Cyber Hymnal™
%%score ( 1 2 ) ( 3 4 )
L:1/8
M:3/4
K:Eb
V:1 treble 
V:2 treble 
V:3 bass 
V:4 bass 
V:1
 [EB]2 [EG]2 [DF]2 | E4 [Ee]2 | (e2 d2) c2 | [GB]6 | [EB]2 [EG]2 [DF]2 | E4 [CE]2 | (E2 D2) E2 | %7
 [DF]6 | [DF]2 [DG]2 [DF]2 | B4 [FB]2 | (B2 cB) (AG) | [FA]6 | [FA]2 [FA]2 [FB]2 | [EG]4 [EG]2 | %14
 [EG]4 [DF]2 | E6 |] %16
V:2
 x6 | E4 x2 | E4 (EF) | x6 | x6 | E4 x2 | C4 E2 | x6 | x6 | (D2 G2) x2 | =E4 E2 | x6 | x6 | x6 | %14
 x6 | E6 |] %16
V:3
 [E,G,]2 [E,B,]2 [B,,A,]2 | [C,G,]4 [G,B,]2 | [A,C]4 (CD) | [E,E]6 | [E,G,]2 [E,B,]2 [B,,A,]2 | %5
 (G,2 C2) [C,B,]2 | [F,=A,]4 [F,C]2 | [B,,B,]6 | [B,,B,]2 B,2 [A,B,]2 | [G,B,]4 [G,B,]2 | %10
 [C,G,]4 [C,C]2 | [F,C]6 | [F,C]2 [E,C]2 [D,B,]2 | B,4 [C,=A,]2 | (B,2 G,2) [B,,A,]2 | [E,G,]6 |] %16
V:4
 x6 | x6 | x4 A,2 | x6 | x6 | C,4 x2 | x6 | x6 | x2 B,2 x2 | x6 | x6 | x6 | x6 | E,2 D,2 x2 | %14
 B,,4 x2 | x6 |] %16

